assets/icons/24px/stroke/shield-24px-1.svg

<svg width="24" height="24" viewBox="0 0 24 24" fill="none" xmlns="http://www.w3.org/2000/svg">
<path fill-rule="evenodd" clip-rule="evenodd" d="M4.94561 2.00001C4.96372 2.00001 4.98186 2.00001 5.00001 2.00001H19C19.0182 2.00001 19.0363 2.00001 19.0544 2.00001C19.4785 1.99992 19.8906 1.99984 20.2305 2.04554C20.6137 2.09706 21.051 2.22259 21.4142 2.5858C21.7774 2.94902 21.903 3.38629 21.9545 3.76949C22.0002 4.10941 22.0001 4.52155 22 4.94562C22 4.96373 22 4.98187 22 5.00001V19C22 19.0182 22 19.0363 22 19.0544C22.0001 19.4785 22.0002 19.8906 21.9545 20.2305C21.903 20.6137 21.7774 21.051 21.4142 21.4142C21.051 21.7774 20.6137 21.903 20.2305 21.9545C19.8906 22.0002 19.4785 22.0001 19.0544 22C19.0363 22 19.0182 22 19 22H5.00001C4.98187 22 4.96373 22 4.94562 22C4.52155 22.0001 4.10941 22.0002 3.76949 21.9545C3.38629 21.903 2.94902 21.7774 2.5858 21.4142C2.22259 21.051 2.09706 20.6137 2.04554 20.2305C1.99984 19.8906 1.99992 19.4785 2.00001 19.0544C2.00001 19.0363 2.00001 19.0182 2.00001 19V5.00001C2.00001 4.98186 2.00001 4.96372 2.00001 4.94561C1.99992 4.52154 1.99984 4.10941 2.04554 3.76949C2.09706 3.38629 2.22259 2.94902 2.5858 2.5858C2.94902 2.22259 3.38629 2.09706 3.76949 2.04554C4.10941 1.99984 4.52154 1.99992 4.94561 2.00001ZM4.02871 4.02871C4.02838 4.03108 4.02804 4.03351 4.02771 4.03599C4.00214 4.22618 4.00001 4.50034 4.00001 5.00001V7.00001H20V5.00001C20 4.50034 19.9979 4.22618 19.9723 4.03599C19.972 4.03351 19.9717 4.03108 19.9713 4.02871C19.9689 4.02838 19.9665 4.02804 19.964 4.02771C19.7738 4.00214 19.4997 4.00001 19 4.00001H5.00001C4.50034 4.00001 4.22618 4.00214 4.03599 4.02771C4.03351 4.02804 4.03108 4.02837 4.02871 4.02871ZM20 9.00001H10V20H19C19.4997 20 19.7738 19.9979 19.964 19.9723C19.9665 19.972 19.9689 19.9717 19.9713 19.9713C19.9717 19.9689 19.972 19.9665 19.9723 19.964C19.9979 19.7738 20 19.4997 20 19V9.00001ZM8.00001 20V9.00001H4.00001V19C4.00001 19.4997 4.00214 19.7738 4.02771 19.964C4.02804 19.9665 4.02838 19.9689 4.02871 19.9713C4.03108 19.9717 4.03351 19.972 4.03599 19.9723C4.22618 19.9979 4.50034 20 5.00001 20H8.00001Z" fill="white"/>
</svg>

<svg width="24" height="24" fill="none" xmlns="http://www.w3.org/2000/svg"><path fill-rule="evenodd" clip-rule="evenodd" d="M4.946 2h14.108c.425 0 .837 0 1.177.046.383.051.82.177 1.183.54.363.363.489.8.54 1.183.046.34.046.753.046 1.177v14.108c0 .425 0 .837-.046 1.177-.051.383-.177.82-.54 1.183-.363.363-.8.489-1.184.54-.34.046-.752.046-1.176.046H4.946c-.424 0-.837 0-1.177-.046-.383-.051-.82-.177-1.183-.54-.363-.363-.489-.8-.54-1.184C2 19.89 2 19.479 2 19.055V5v-.054c0-.424 0-.837.046-1.177.051-.383.177-.82.54-1.183.363-.363.8-.489 1.183-.54C4.11 2 4.522 2 4.946 2zm-.917 2.029l-.001.007C4.002 4.226 4 4.5 4 5v2h16V5c0-.5-.002-.774-.028-.964v-.007l-.008-.001C19.774 4.002 19.5 4 19 4H5c-.5 0-.774.002-.964.028h-.007zM20 9H10v11h9c.5 0 .774-.002.964-.028a.16.16 0 0 0 .007 0l.001-.008c.026-.19.028-.464.028-.964V9zM8 20V9H4v10c0 .5.002.774.028.964v.007l.008.001c.19.026.464.028.964.028h3z" fill="#fff"/></svg>
